X: 4930
T: Breakfast Club
R: reel
M: 4/4
K: Gmajor
|:DG G/G/G AGGd|d/d/d cd BGEd|d/d/d cd BGDG|dGgd e2 eg|
d2 dc BG G/G/G|DG G/G/G AGGd|d/d/d cd BGEG|DcBG cBGE:|
|:DG G/G/G CG G/G/G|BGAB AGEG|DG G/G/G CG G/G/G|BGAB A2GE|
[1 DG G/G/G EG G/G/G|BGAB degd|e3d B2 AG|A3G ABGE:|
[2 DG G/G/G EG G/G/G|BGAB degd|e2ed e2ge|dcBG cBGE||

